img/manages-icon3.svg

<svg width="70" height="70" viewBox="0 0 70 70" fill="none" xmlns="http://www.w3.org/2000/svg">
<path fill-rule="evenodd" clip-rule="evenodd" d="M11.6667 10.1943C7.6396 10.1943 4.375 13.4545 4.375 17.4761V46.6032C4.375 50.6248 7.6396 53.885 11.6667 53.885H29.7238L26.807 59.7104H20.4167C19.6113 59.7104 18.9583 60.3625 18.9583 61.1667C18.9583 61.9709 19.6113 62.6231 20.4167 62.6231H27.6768C27.6971 62.6234 27.7174 62.6234 27.7376 62.6231H42.2625C42.2826 62.6234 42.3028 62.6234 42.3232 62.6231H49.5833C50.3886 62.6231 51.0417 61.9709 51.0417 61.1667C51.0417 60.3625 50.3886 59.7104 49.5833 59.7104H43.1929L40.2763 53.885H58.3333C62.3604 53.885 65.625 50.6248 65.625 46.6032V17.4761C65.625 13.4545 62.3604 10.1943 58.3333 10.1943H11.6667ZM39.9321 59.7104L37.0154 53.885H32.9846L30.0679 59.7104H39.9321ZM37.8849 50.9723C37.9053 50.972 37.9257 50.972 37.9461 50.9723H58.3333C60.7495 50.9723 62.7083 49.0161 62.7083 46.6032V17.4761C62.7083 15.0631 60.7495 13.107 58.3333 13.107H11.6667C9.25041 13.107 7.29167 15.0631 7.29167 17.4761V46.6032C7.29167 49.0161 9.25041 50.9723 11.6667 50.9723H32.0539C32.0743 50.972 32.0947 50.972 32.1148 50.9723H37.8849Z" fill="#36A2F4"/>
</svg>

<svg width="70" height="70" fill="none" xmlns="http://www.w3.org/2000/svg"><path fill-rule="evenodd" clip-rule="evenodd" d="M11.667 10.194c-4.027 0-7.292 3.26-7.292 7.282v29.127c0 4.022 3.265 7.282 7.292 7.282h18.057l-2.917 5.825h-6.39a1.457 1.457 0 100 2.913H49.583a1.458 1.458 0 100-2.913h-6.39l-2.917-5.825h18.057c4.027 0 7.292-3.26 7.292-7.282V17.476c0-4.021-3.265-7.282-7.292-7.282H11.667zM39.932 59.71l-2.917-5.825h-4.03l-2.917 5.825h9.864zm-2.047-8.738h20.448a4.372 4.372 0 004.375-4.369V17.476a4.372 4.372 0 00-4.375-4.369H11.667a4.372 4.372 0 00-4.375 4.37v29.126a4.372 4.372 0 004.375 4.37h26.217z" fill="#36A2F4"/></svg>
